build/payment/MirL.svg

<svg xmlns="http://www.w3.org/2000/svg" fill="none" viewBox="0 0 40 40" focusable="false"><path fill="none" d="M0 0H40V40H0z"/><path fill="none" d="M6 10H34V30H6z"/><rect width="28" height="20" x="6" y="10" fill="#F5F5F6" rx="2"/><path fill="#28303D" fill-rule="evenodd" d="M15.2292 17C14.7435 17 14.3161 17.3216 14.1811 17.7887L13.3859 20.5456L13.2497 20.5456L12.4545 17.7887C12.3196 17.3216 11.8922 17 11.4064 17L9.5 17L9.5 22.9999L11.4086 22.9999L11.4086 19.4544L11.5452 19.4544L12.636 22.9999L13.9996 22.9999L15.0904 19.4544L15.2266 19.4544L15.2266 22.9999L17.1356 22.9999L17.1356 17L15.2292 17ZM21.343 17.6337C21.5214 17.2473 21.9079 17 22.3336 17L23.9536 17L23.9536 22.9996L22.0446 22.9996L22.0446 19.4544L21.9084 19.4544L20.5643 22.3658C20.3858 22.7523 19.9994 22.9996 19.5741 22.9996L17.9536 22.9996L17.9536 17L19.8627 17L19.8627 20.5451L19.9994 20.5451L21.343 17.6337ZM24.499 17C24.7558 18.3963 25.9775 19.4544 27.4478 19.4544L30.7305 19.4544C30.757 19.3221 30.7714 19.1854 30.7714 19.0452C30.7714 17.9158 29.8556 17 28.7262 17L24.499 17ZM24.7715 23.0002L24.7715 19.7275L30.6522 19.7275C30.371 20.5215 29.6158 21.0912 28.7257 21.0912L26.6766 21.0912L26.6766 23.0002L24.7715 23.0002Z"/></svg>

<svg xmlns="http://www.w3.org/2000/svg" fill="none" viewBox="0 0 40 40" focusable="false"><path fill="none" d="M0 0h40v40H0z"/><path fill="none" d="M6 10h28v20H6z"/><rect width="28" height="20" x="6" y="10" fill="#F0F2F5" rx="2"/><path fill="#29313D" fill-rule="evenodd" d="M15.22 17c-.48 0-.91.32-1.04.78l-.8 2.76h-.14l-.79-2.76c-.14-.46-.56-.78-1.05-.78H9.5v5.99h1.9v-3.54h.14l1.09 3.54h1.36l1.1-3.54h.13v3.54h1.91V17zm7.11 0c-.43 0-.81.24-.99.63l-1.35 2.91h-.13V17h-1.91v5.99h1.62c.42 0 .81-.24.99-.63l1.34-2.91h.14v3.54h1.91V17zm2.16 0a3.006 3.006 0 0 0 2.95 2.45h3.29A2.044 2.044 0 0 0 28.72 17zm.28 6v-3.28h5.88c-.28.8-1.04 1.37-1.93 1.37h-2.05V23z"/></svg>
